X: 2792
T: Banshee, The
R: reel
M: 4/4
K: Gmajor
F|:GFGD EDB,D|GFGB d2 B/c/d|efed BAGA|BAGE EDDE|
G2 GD EDB,D|GFGB d2 B/c/d|eged BAGA|1 BAGE EDDE:|2 BAGE ED D2||
|:eaag efg/f/e|dBBA B2 Bd|eB~B2 gBfB|eBBA B2 Bd|
eaag efg/f/e|dBBA B2 Bd|eged BAGA|1 BAGE EDD2:|2 BAGE EDDE||

